projects/js-packages/social-logos/src/svg/bluesky.svg

<svg viewBox="0 0 24 24" xmlns="http://www.w3.org/2000/svg"><path d="m21.2 3.3c-.5-.2-1.4-.5-3.6 1-2.2 1.7-4.7 4.9-5.6 6.7-.9-1.8-3.4-5-5.7-6.7-2.2-1.6-3-1.3-3.6-1s-.7 1.3-.7 1.8.3 4.7.5 5.4c.7 2.3 3.1 3.1 5.3 2.8-3.3.5-6.2 1.7-2.4 5.9 4.2 4.3 5.7-.9 6.5-3.6.8 2.7 1.7 7.7 6.4 3.6 3.6-3.6 1-5.4-2.3-5.9 2.2.2 4.6-.5 5.3-2.8.4-.7.7-4.8.7-5.4 0-.5-.1-1.5-.8-1.8z"/></svg>

<svg viewBox="0 0 24 24" xmlns="http://www.w3.org/2000/svg">
<path d="M21.2 3.3C20.7 3.1 19.8 2.8 17.6 4.3C15.4 6 12.9 9.2 12 11C11.1 9.2 8.6 6 6.3 4.3C4.1 2.7 3.3 3 2.7 3.3C2.1 3.6 2 4.6 2 5.1C2 5.6 2.3 9.8 2.5 10.5C3.2 12.8 5.6 13.6 7.8 13.3C4.5 13.8 1.6 15 5.4 19.2C9.6 23.5 11.1 18.3 11.9 15.6C12.7 18.3 13.6 23.3 18.3 19.2C21.9 15.6 19.3 13.8 16 13.3C18.2 13.5 20.6 12.8 21.3 10.5C21.7 9.8 22 5.7 22 5.1C22 4.6 21.9 3.6 21.2 3.3Z" fill="black"/>
</svg>
